packages/icons/menus/MenuPersonasActive.svg

<svg xmlns="http://www.w3.org/2000/svg" width="36" height="36" fill="none" viewBox="0 0 36 36">
    <path fill="#F9F9FA" d="M0 18C0 8.05887 8.05887 0 18 0V0C27.9411 0 36 8.05887 36 18V18C36 27.9411 27.9411 36 18 36V36C8.05887 36 0 27.9411 0 18V18Z"/>
    <rect width="2.25" height="11.25" x="5.38995" y="19.5601" fill="#1C68F3" rx="1.125" transform="rotate(-30 5.38995 19.5601)"/>
    <path fill="url(#paint0_linear_1005_26305)" fill-rule="evenodd" d="M20.4516 19.4166C18.9977 19.8807 17.4242 19.6354 15.9967 18.7484C15.8417 18.6453 15.6352 18.6197 15.4414 18.6816C15.2475 18.7434 15.094 18.884 15.018 19.0761C14.3779 20.6078 13.2237 21.7239 11.7698 22.188C9.4436 22.9305 6.80085 21.8212 5.18122 19.424C4.7481 18.7842 4.39864 18.0718 4.15554 17.3102C4.04062 16.9502 3.94897 16.5675 3.87559 16.1943L3.62685 14.7937L4.78856 15.6129C5.00717 15.772 5.29619 15.8171 5.54543 15.7375C5.61466 15.7154 5.67948 15.6795 5.74429 15.6435L6.038 15.3209L6.05685 15.2844L6.09456 15.2113C6.89612 13.9942 8.08454 13.0808 9.48304 12.6344C10.7985 12.2145 12.2094 12.2371 13.5136 12.6904C14.314 11.5653 15.4509 10.7294 16.7663 10.3095C18.151 9.86746 19.6626 9.91893 21.0211 10.4465L21.0942 10.4842C21.149 10.5125 21.2176 10.5363 21.2863 10.5602L21.3046 10.5696C21.4557 10.6129 21.6213 10.6058 21.7874 10.5528C22.0505 10.4688 22.2461 10.2691 22.3321 10.0127L22.7905 8.67635L23.3992 9.96201C23.5739 10.3182 23.7027 10.6738 23.8176 11.0338C24.0607 11.7953 24.1886 12.5784 24.2064 13.3509C24.3029 16.2343 22.7778 18.674 20.4516 19.4166ZM11.4923 18.5394C11.2985 18.6012 11.0958 18.6354 10.8887 18.6558C9.75235 18.7286 8.69582 17.9521 8.20939 17.5276C8.55907 17.1413 9.25726 16.4607 10.1296 16.1822C10.3373 16.1159 10.5261 16.0862 10.7332 16.0658C11.8696 15.993 12.9261 16.7695 13.4125 17.194C13.049 17.5847 12.3508 18.2653 11.4923 18.5394ZM16.2383 16.2922C16.7471 16.4044 17.7243 16.5502 18.5828 16.2762C18.7905 16.2099 18.9755 16.1203 19.1422 16.0213C20.0967 15.4267 20.5218 14.1772 20.6723 13.5494C20.1635 13.4372 19.1863 13.2914 18.3278 13.5654C18.1201 13.6317 17.9351 13.7213 17.7683 13.8203C16.8138 14.4149 16.3888 15.6644 16.2383 16.2922Z" clip-rule="evenodd"/>
    <g filter="url(#filter0_b_1005_26305)">
        <path fill="#1C68F3" fill-opacity="0.1" fill-rule="evenodd" d="M21.0438 12.9319L21.2879 12.5251L32.7755 16.3164L32.7267 16.7882C32.629 17.8133 32.4175 18.8384 32.0758 19.8473C31.2785 22.2391 29.9117 24.2893 28.2358 25.6236C26.9829 26.6161 25.6324 27.1368 24.3469 27.1368C23.8425 27.1368 23.3544 27.0717 22.8825 26.909C21.1903 26.3395 19.9374 24.8426 19.3679 22.6785C18.8147 20.612 18.9448 18.155 19.7421 15.7631C20.0676 14.7543 20.5069 13.8106 21.0438 12.9319ZM22.5087 19.6522C22.7528 19.7661 23.0131 19.8149 23.306 19.8149C23.5664 19.8149 23.8592 19.7661 24.1684 19.6848C24.5008 19.574 24.768 19.4352 24.8854 19.3742C24.9232 19.3546 24.9455 19.3431 24.9494 19.3431L25.2748 19.1478L25.0959 18.8061C25.0796 18.7573 24.5589 17.7648 23.5338 17.3092C22.5087 16.8536 21.4185 17.1464 21.3697 17.1627L20.9955 17.2603L21.0768 17.6346C21.0815 17.6393 21.0915 17.6734 21.1081 17.7297C21.1492 17.8696 21.2305 18.1465 21.3697 18.4482C21.6626 19.0339 22.0531 19.457 22.5087 19.6522ZM27.5691 21.377C27.6993 21.4095 27.8294 21.4258 27.9759 21.4258C28.3664 21.4258 28.7895 21.3119 29.1962 21.1004C29.6193 20.8889 29.8959 20.6448 29.9122 20.6285L30.2051 20.3682L29.9773 20.059C29.9447 20.0102 29.2451 19.1153 28.1549 18.8712C27.1458 18.6453 26.2064 19.0467 26.0335 19.1206C26.0196 19.1265 26.0107 19.1303 26.0071 19.1315L25.6654 19.2943L25.8118 19.6522C25.8118 19.6685 25.9582 20.0265 26.2349 20.4007C26.6254 20.9214 27.081 21.2631 27.5691 21.377Z" clip-rule="evenodd"/>
    </g>
    <defs>
        <filter id="filter0_b_1005_26305" width="21.7446" height="22.6116" x="15.0309" y="8.52515" color-interpolation-filters="sRGB" filterUnits="userSpaceOnUse">
            <feFlood flood-opacity="0" result="BackgroundImageFix"/>
            <feGaussianBlur in="BackgroundImage" stdDeviation="2"/>
            <feComposite in2="SourceAlpha" operator="in" result="effect1_backgroundBlur_1005_26305"/>
            <feBlend in="SourceGraphic" in2="effect1_backgroundBlur_1005_26305" mode="normal" result="shape"/>
        </filter>
        <linearGradient id="paint0_linear_1005_26305" x1="3.89599" x2="23.7072" y1="16.3064" y2="9.92652" gradientUnits="userSpaceOnUse">
            <stop stop-color="#1C68F3"/>
            <stop offset="1" stop-color="#6CB8FF"/>
        </linearGradient>
    </defs>
</svg>

<svg xmlns="http://www.w3.org/2000/svg" width="36" height="36" fill="none">
    <path fill="#F9F9FA" d="M0 18C0 8.059 8.059 0 18 0s18 8.059 18 18-8.059 18-18 18S0 27.941 0 18Z"/>
    <rect width="2.25" height="11.25" x="5.39" y="19.56" fill="#1C68F3" rx="1.125" transform="rotate(-30 5.39 19.56)"/>
    <path fill="url(#MenuPersonasActive_svg__a)" fill-rule="evenodd" d="M20.452 19.417c-1.454.464-3.028.218-4.455-.669a.65.65 0 0 0-.556-.066.668.668 0 0 0-.423.394c-.64 1.532-1.794 2.648-3.248 3.112-2.326.742-4.97-.367-6.589-2.764a8.251 8.251 0 0 1-1.025-2.114 10.15 10.15 0 0 1-.28-1.116l-.25-1.4 1.163.819a.86.86 0 0 0 .756.125 1.14 1.14 0 0 0 .2-.095l.293-.322.019-.037.038-.073a6.38 6.38 0 0 1 3.388-2.577 6.366 6.366 0 0 1 4.03.056 6.366 6.366 0 0 1 3.253-2.38 6.41 6.41 0 0 1 4.255.136l.073.038c.055.028.124.052.192.076l.019.01a.83.83 0 0 0 .482-.017.84.84 0 0 0 .545-.54l.459-1.337.608 1.286c.175.356.304.712.419 1.072.243.761.37 1.544.388 2.317.097 2.883-1.428 5.323-3.754 6.066Zm-8.96-.878a2.926 2.926 0 0 1-.603.117c-1.137.073-2.193-.704-2.68-1.128.35-.387 1.048-1.067 1.92-1.346a2.81 2.81 0 0 1 .604-.116c1.137-.073 2.193.704 2.68 1.128-.364.39-1.062 1.071-1.92 1.345Zm4.746-2.247c.51.112 1.486.258 2.345-.016a2.7 2.7 0 0 0 .56-.255c.954-.594 1.379-1.844 1.53-2.472-.51-.112-1.487-.258-2.345.016a2.704 2.704 0 0 0-.56.255c-.954.595-1.38 1.844-1.53 2.472Z" clip-rule="evenodd"/>
    <g filter="url(#MenuPersonasActive_svg__b)">
        <path fill="#1C68F3" fill-opacity=".1" fill-rule="evenodd" d="m21.044 12.932.244-.407 11.488 3.791-.05.472a13.516 13.516 0 0 1-.65 3.06c-.797 2.391-2.164 4.441-3.84 5.776-1.253.992-2.604 1.513-3.89 1.513-.503 0-.992-.065-1.463-.228-1.693-.57-2.946-2.066-3.515-4.23-.553-2.067-.423-4.524.374-6.916a13.18 13.18 0 0 1 1.302-2.831Zm1.465 6.72c.244.114.504.163.797.163.26 0 .553-.049.862-.13.333-.111.6-.25.717-.31a.5.5 0 0 1 .064-.032l.326-.195-.18-.342c-.015-.049-.536-1.041-1.561-1.497-1.025-.455-2.115-.163-2.164-.146l-.375.097.082.375c.004.004.014.038.031.095.041.14.122.416.262.718.293.586.683 1.009 1.139 1.204Zm5.06 1.725c.13.033.26.049.407.049.39 0 .814-.114 1.22-.326.423-.211.7-.455.716-.472l.293-.26-.228-.309c-.032-.049-.732-.944-1.822-1.188-1.01-.226-1.949.176-2.122.25a.1.1 0 0 1-.026.01l-.342.163.147.358c0 .017.146.374.423.749.39.52.846.862 1.334.976Z" clip-rule="evenodd"/>
    </g>
    <defs>
        <linearGradient id="MenuPersonasActive_svg__a" x1="3.896" x2="23.707" y1="16.306" y2="9.927" gradientUnits="userSpaceOnUse">
            <stop stop-color="#1C68F3"/>
            <stop offset="1" stop-color="#6CB8FF"/>
        </linearGradient>
        <filter id="MenuPersonasActive_svg__b" width="21.745" height="22.612" x="15.031" y="8.525" color-interpolation-filters="sRGB" filterUnits="userSpaceOnUse">
            <feFlood flood-opacity="0" result="BackgroundImageFix"/>
            <feGaussianBlur in="BackgroundImage" stdDeviation="2"/>
            <feComposite in2="SourceAlpha" operator="in" result="effect1_backgroundBlur_1005_26305"/>
            <feBlend in="SourceGraphic" in2="effect1_backgroundBlur_1005_26305" result="shape"/>
        </filter>
    </defs>
</svg>
